Newaita-dark/actions/16/document-encrypted.svg

<svg height="16" viewBox="0 0 16 16" width="16" xmlns="http://www.w3.org/2000/svg"><g fill="#e0e0e0"><path d="m3.96875 8.0625c-.734375 0-1.324219.589844-1.324219 1.324219v3.96875c0 .734375.589844 1.324219 1.324219 1.324219h7.9375c.734375 0 1.324219-.589844 1.324219-1.324219v-3.96875c0-.734375-.589844-1.324219-1.324219-1.324219zm.660156 1.324219h6.617188c.367187 0 .660156.292969.660156.660156v2.648437c0 .363282-.292969.660157-.660156.660157h-6.617188c-.363281 0-.660156-.296875-.660156-.660157v-2.648437c0-.367187.296875-.660156.660156-.660156zm0 0"/><path d="m7.9375 1.449219c-2.199219 0-3.96875 1.769531-3.96875 3.96875v3.308593h1.324219v-3.308593c0-1.464844 1.179687-2.648438 2.644531-2.648438s2.648438 1.183594 2.648438 2.648438v3.308593h1.320312v-3.308593c0-2.199219-1.769531-3.96875-3.96875-3.96875zm0 0"/></g></svg>

<?xml version="1.0" encoding="UTF-8"?>
<svg xmlns="http://www.w3.org/2000/svg" xmlns:xlink="http://www.w3.org/1999/xlink" width="16px" height="16px" viewBox="0 0 16 16" version="1.1">
<g id="surface1">
<path style=" stroke:none;fill-rule:nonzero;fill:rgb(87.843138%,87.843138%,87.843138%);fill-opacity:1;" d="M 3.96875 8.0625 C 3.234375 8.0625 2.644531 8.652344 2.644531 9.386719 L 2.644531 13.355469 C 2.644531 14.089844 3.234375 14.679688 3.96875 14.679688 L 11.90625 14.679688 C 12.640625 14.679688 13.230469 14.089844 13.230469 13.355469 L 13.230469 9.386719 C 13.230469 8.652344 12.640625 8.0625 11.90625 8.0625 Z M 4.628906 9.386719 L 11.246094 9.386719 C 11.613281 9.386719 11.90625 9.679688 11.90625 10.046875 L 11.90625 12.695312 C 11.90625 13.058594 11.613281 13.355469 11.246094 13.355469 L 4.628906 13.355469 C 4.265625 13.355469 3.96875 13.058594 3.96875 12.695312 L 3.96875 10.046875 C 3.96875 9.679688 4.265625 9.386719 4.628906 9.386719 Z M 4.628906 9.386719 "/>
<path style=" stroke:none;fill-rule:nonzero;fill:rgb(87.843138%,87.843138%,87.843138%);fill-opacity:1;" d="M 7.9375 1.449219 C 5.738281 1.449219 3.96875 3.21875 3.96875 5.417969 L 3.96875 8.726562 L 5.292969 8.726562 L 5.292969 5.417969 C 5.292969 3.953125 6.472656 2.769531 7.9375 2.769531 C 9.402344 2.769531 10.585938 3.953125 10.585938 5.417969 L 10.585938 8.726562 L 11.90625 8.726562 L 11.90625 5.417969 C 11.90625 3.21875 10.136719 1.449219 7.9375 1.449219 Z M 7.9375 1.449219 "/>
</g>
</svg>
